src/24/actions/transform-move-vertical.svg

<svg xmlns="http://www.w3.org/2000/svg" viewBox="0 0 24 24"><path d="M12 4l-2 4h4l-2-4zm0 7c-.554 0-1 .446-1 1s.446 1 1 1 1-.446 1-1-.446-1-1-1zm-2 5l2 4 2-4h-4z" fill="currentColor" color="#5d656b"/></svg>

<svg xmlns="http://www.w3.org/2000/svg" viewBox="0 0 24 24">
  <defs id="defs3051">
    <style type="text/css" id="current-color-scheme">
      .ColorScheme-Text {
        color:#5d656b;
      }
      </style>
  </defs>
 <path style="fill:currentColor;fill-opacity:1;stroke:none" 
     d="M 12 4 L 10 8 L 14 8 L 12 4 z M 12 11 C 11.446 11 11 11.446 11 12 C 11 12.554 11.446 13 12 13 C 12.554 13 13 12.554 13 12 C 13 11.446 12.554 11 12 11 z M 10 16 L 12 20 L 14 16 L 10 16 z "
     class="ColorScheme-Text"
     />
</svg>
